X: 5
T: Cheer Up Old Hag
R: jig
M: 6/8
L: 1/8
K: Gmaj
|:BGG G2B| ded d2c|BcA G (3Bcd| e2f g2D|
GBd gfe|fdB c2A|BGE EDE| c3 B2A:|
|BGE EDE |GED D2c|BGE EBE| c2d edc|
BGE EDE| GED D2F|GBA GBA|1G3 G2A:|2G3 G2D||
